X:1
T:He’s Everything to Me
T:Blanche Kerr Brock
T:He’s Everything to Me
T:Public Domain
T:Public Domain
C:Blanche Kerr Brock
Z:Public Domain
%%score 1 ( 2 3 )
L:1/8
M:3/4
K:Eb
V:1 treble 
V:2 bass 
V:3 bass 
V:1
 [GB]2 | [EG]>[E^F] [EG]3 [EG] | [DA]>[^CG] [DA]3 [CG] | [DA]>[^CG] [DA]3 [E=A] | %4
w: 1.~My|Sav- ior’s love is|sweet- er still, Each|day I try to|
w: 2.~Such|won- drous bless- ings|o’er me stole, When|Je- sus came and|
w: 3.~No|good thing does my|Lord de- ny, I|feel His pre- sence|
w: 4.~I’m|watch- ing for my|King’s re- turn, To|see His face my|
 [EB]>[EG] [EG]3 [GB] | [Ge]>[Fd] [Ee]3 [EG] | [DA][GB] [Ac]2 [^Fd]2 | [Ge][EB] [DA]3 [DF] | %8
w: do His will; My|heart with peace and|joy He fills, He’s|ev- ery- thing to|
w: made me whole, His|love like bil- lows|o’er me roll, He’s|ev- ery- thing to|
w: ev- er nigh; Earth’s|plea- sures fail to|sat- is- fy, He’s|ev- ery- thing to|
w: soul doth yearn, Yet|day by day I|live to learn, He’s|ev- ery- thing to|
 [B,E]4 ||"^Refrain" [GB]2 | [EG]>[E^F] [EG]3 [GB] | [Gc]>[EG] [EG]3 [EG] | %12
w: me.||||
w: me.|He’s|all in all to|me to- day, In-|
w: me.||||
w: me.||||
 [DA]>[^CG] [DA]3 [A^c] | [Ad]>[AB] [AB]3 [AB] | [Ge]>[Ad] [Be]3 [EG] | [DA][GB] [Ac]2 [^Fd]2 | %16
w: ||||
w: to my heart He’s|come to stay; He’s|all in all to|me to- day, He’s|
w: ||||
w: ||||
 [Ge][EB] [DA]3 [DF] | [B,E]4 |] %18
w: ||
w: ev- ery- thing to|me.|
w: ||
w: ||
V:2
 [E,E]2 | [E,B,]>[E,=A,] [E,B,]3 [E,G,] | [B,,F,]>[B,,=E,] [B,,F,]3 [B,,E,] | %3
 [B,,F,]>[B,,=E,] [B,,F,]3 [_E,^F,] | [E,G,]>[E,B,] [E,B,]3 [E,B,] | [E,B,]>[F,B,] [G,B,]3 [E,B,] | %6
 [F,B,][G,E] [A,E]2 DC | B,[B,,G,] [B,,F,]3 [B,,A,] | [E,G,]4 || [E,E]2 | %10
 [E,B,]>[E,=A,] [E,B,]3 [E,E] | [E,E]>[E,B,] [E,B,]3 [E,B,] | [F,B,]>[=E,B,] [F,B,]3 [F,D] | %13
 [B,F]>[B,D] [B,D]3 [B,,B,] | [E,B,]>[F,B,] [G,E]3 [E,B,] | [F,B,][G,E] [A,E]2 DC | %16
 B,[B,,G,] [B,,F,]3 [B,,A,] | [E,G,]4 |] %18
V:3
 x2 | x6 | x6 | x6 | x6 | x6 | x4 =A,2 | B, x5 | x4 || x2 | x6 | x6 | x6 | x6 | x6 | x4 =A,2 | %16
 B, x5 | x4 |] %18

